!!!COM: Music21
!!!OTL: Muiñeira de Ancadeira
!!!OMV: pezas_muineiras_muineira-de-ancadeira_muineira-de-ancadeira-partitura.musicxml
**kern
*I"Bagpipes
*I'Bag
*clefG^2
*k[]
*M6/8
=1
!LO:TX:a:t=Presto
*MM195
!LO:TX:a:t=[quarter]=195
2r
8r
8gg
=||
4.ccc
4ddd
8ccc
=
8bbL
8aa
8ggJ
8ggL
8ee
8ffJ
=
4.gg
4bb
8aa
=
8ggL
8ff
8eeJ
[4.gg
=
4gg]
8ff
4aa
8gg
=
8ffL
8ee
8ddJ
8ddL
8ee
8ffJ
=
8ggL
8aa
8ggJ
8ffL
8ee
8ddJ
=
2.gg
!!linebreak:original
=||
4.ccc
4ddd
8ccc
=
8bbL
8aa
8ggJ
8ggL
8ee
8ffJ
=
4.gg
4bb
8aa
=
8ggL
8ff
8eeJ
[4.gg
=
4gg]
8ff
4aa
8gg
=
8ffL
8ee
8ddJ
8ddL
8ee
8ffJ
=
8ggL
8aa
8ggJ
8ffL
8ee
8ddJ
!!linebreak:original
=
2cc
8ddL
8eeJ
=||
2ff
8ggL
8ffJ
=
8eeL
8dd
8ccJ
8ccL
8ee
8eeJ
=
8eeL
8dd
8ccJ
8bL
8dd
8ddJ
=
8eeL
8dd
8ccJ
8ccL
8dd
8eeJ
=
4.ff
8aaL
8gg
8ffJ
=
8eeL
8dd
[8ccJ
8ccL]
8ee
8eeJ
=
8eeL
8dd
8ccJ
8bL
8cc
8ddJ
!!linebreak:original
=
2cc
8ddL
8eeJ
=||
2ff
8ggL
8ffJ
=
8eeL
8dd
8ccJ
8ccL
8ee
8eeJ
=
8eeL
8dd
8ccJ
8bL
8dd
8ddJ
=
8eeL
8dd
8ccJ
8ccL
8dd
8eeJ
=
4.ff
8aaL
8gg
8ffJ
=
8eeL
8dd
[8ccJ
8ccL]
8ee
8eeJ
=
8eeL
8dd
8ccJ
8bL
8cc
8ddJ
!!linebreak:original
=
[4.cc
4cc]
8gg
=||
4aa
8ff
8ddL
8ee
8ffJ
=
4gg
8ee
8ccL
8ee
8eeJ
=
4ff
8dd
8bL
8dd
8ddJ
=
8eeL
8dd
[8ccJ
4cc]
8gg
=
4aa
8ff
8ddL
8ee
8ffJ
=
4gg
8ee
8ccL
8ee
8eeJ
!!linebreak:original
=
4ff
8dd
8bL
8dd
8ddJ
=
[4.cc
4cc]
8gg
=||
4aa
8ff
8ddL
8ee
8ffJ
=
4gg
8ee
8ccL
8ee
8eeJ
=
4ff
8dd
8bL
8dd
8ddJ
=
8eeL
8dd
[8ccJ
4cc]
8gg
=
4aa
8ff
8ddL
8ee
8ffJ
=
4gg
8ee
8ccL
8ee
8eeJ
!!linebreak:original
=
4ff
8dd
8bL
8dd
8ddJ
=||
[4.cc
4cc]
8gg
=||
4.cc
4.gg
=
8ccc
8r
2r
==
*-
